X: 49
T: Zhongshi de xing na xiangnian ni
%%abc-version 2.0
%%abcx-abcm2ps-target-version 5.9.1 (29 Sep 2008)
%%abc-creator hum2abc beta
%%abcx-conversion-date 2013/10/02 07:44:27
%%abc-edited-by Helmut Schaffrath
%%humdrum-veritas 2942965912
%%humdrum-veritas-data 847626504
%%continueall 1
%%barnumbers 0
L: 1/8
M: 2/4
K: G
d> d d d [I:setbarnb 1]| 
A B d3/ e/ | 
B B A B/ A/ | 
G GG2 | 
B B/ B/ A B/ A/ | 
G G A3/ d/ | 
B B A B/ A/ | 
G GG2 | 
G G B3/ d/ | 
G G A3/ d/ | 
B B A B/ A/ | 
G GG2 |]  



